icons/modern/glass-of-milk.svg

<svg width="32" height="32" viewBox="0 0 32 32" fill="none" xmlns="http://www.w3.org/2000/svg">
<path d="M4.00949 3.06581L7.7896 29.1932C7.86016 29.6514 8.2533 30 8.72707 30H23.2729C23.7467 30 24.1499 29.6613 24.2104 29.1932L27.9905 3.06581C28.0712 2.508 27.6276 2 27.053 2H4.94696C4.37238 2 3.92885 2.508 4.00949 3.06581Z" fill="url(#paint0_linear_18_30769)"/>
<path d="M4.00949 3.06581L7.7896 29.1932C7.86016 29.6514 8.2533 30 8.72707 30H23.2729C23.7467 30 24.1499 29.6613 24.2104 29.1932L27.9905 3.06581C28.0712 2.508 27.6276 2 27.053 2H4.94696C4.37238 2 3.92885 2.508 4.00949 3.06581Z" fill="url(#paint1_linear_18_30769)"/>
<path d="M4.00949 3.06581L7.7896 29.1932C7.86016 29.6514 8.2533 30 8.72707 30H23.2729C23.7467 30 24.1499 29.6613 24.2104 29.1932L27.9905 3.06581C28.0712 2.508 27.6276 2 27.053 2H4.94696C4.37238 2 3.92885 2.508 4.00949 3.06581Z" fill="url(#paint2_linear_18_30769)"/>
<path d="M6.50999 9.29455L8.97101 26.4623C9.01102 26.771 9.28113 27 9.59126 27H22.3966C22.7067 27 22.9768 26.771 23.0168 26.4623L25.4878 9.29455C25.5879 8.60744 25.0577 8 24.3574 8H7.64045C6.95017 8 6.41995 8.6174 6.50999 9.29455Z" fill="url(#paint3_linear_18_30769)"/>
<path d="M6.50999 9.29455L8.97101 26.4623C9.01102 26.771 9.28113 27 9.59126 27H22.3966C22.7067 27 22.9768 26.771 23.0168 26.4623L25.4878 9.29455C25.5879 8.60744 25.0577 8 24.3574 8H7.64045C6.95017 8 6.41995 8.6174 6.50999 9.29455Z" fill="url(#paint4_linear_18_30769)"/>
<g filter="url(#filter0_f_18_30769)">
<path d="M24.127 8.68103L25.25 8.94804L23.0341 9.18164L11.4025 8.94804L20.6141 8.68103H24.127Z" fill="white"/>
</g>
<path fill-rule="evenodd" clip-rule="evenodd" d="M24.8558 5.21513C24.9342 4.66844 24.5545 4.16173 24.0078 4.08336C23.4611 4.005 22.9544 4.38467 22.876 4.93136L19.7128 27H21.7333L24.8558 5.21513Z" fill="url(#paint5_linear_18_30769)"/>
<g filter="url(#filter1_f_18_30769)">
<path d="M26.127 2.68103L27.25 2.94804L25.0341 3.18164L13.4025 2.94804L22.6141 2.68103H26.127Z" fill="#D8FCFF"/>
</g>
<g filter="url(#filter2_f_18_30769)">
<path d="M5.52553 3L4.40248 3.22868L6.61841 3.42875L18.2501 3.22868L9.03843 3H5.52553Z" fill="#9FD2F7" fill-opacity="0.75"/>
</g>
<defs>
<filter id="filter0_f_18_30769" x="10.4025" y="7.68103" width="15.8476" height="2.50061" filterUnits="userSpaceOnUse" color-interpolation-filters="sRGB">
<feFlood flood-opacity="0" result="BackgroundImageFix"/>
<feBlend mode="normal" in="SourceGraphic" in2="BackgroundImageFix" result="shape"/>
<feGaussianBlur stdDeviation="0.5" result="effect1_foregroundBlur_18_30769"/>
</filter>
<filter id="filter1_f_18_30769" x="12.4025" y="1.68103" width="15.8476" height="2.50061" filterUnits="userSpaceOnUse" color-interpolation-filters="sRGB">
<feFlood flood-opacity="0" result="BackgroundImageFix"/>
<feBlend mode="normal" in="SourceGraphic" in2="BackgroundImageFix" result="shape"/>
<feGaussianBlur stdDeviation="0.5" result="effect1_foregroundBlur_18_30769"/>
</filter>
<filter id="filter2_f_18_30769" x="3.40248" y="2" width="15.8476" height="2.42871" filterUnits="userSpaceOnUse" color-interpolation-filters="sRGB">
<feFlood flood-opacity="0" result="BackgroundImageFix"/>
<feBlend mode="normal" in="SourceGraphic" in2="BackgroundImageFix" result="shape"/>
<feGaussianBlur stdDeviation="0.5" result="effect1_foregroundBlur_18_30769"/>
</filter>
<linearGradient id="paint0_linear_18_30769" x1="4" y1="2.5" x2="28" y2="2.5" gradientUnits="userSpaceOnUse">
<stop stop-color="#A6D5FC"/>
<stop offset="0.203125" stop-color="#C7ECFF"/>
<stop offset="0.494792" stop-color="#C2ECFF"/>
<stop offset="0.78125" stop-color="#C2EDFF"/>
<stop offset="1" stop-color="#9ED6FD"/>
</linearGradient>
<linearGradient id="paint1_linear_18_30769" x1="16" y1="28" x2="16" y2="30" gradientUnits="userSpaceOnUse">
<stop stop-color="#DDFDFF" stop-opacity="0"/>
<stop offset="1" stop-color="#DDFDFF" stop-opacity="0.75"/>
</linearGradient>
<linearGradient id="paint2_linear_18_30769" x1="4" y1="3.5" x2="28" y2="3" gradientUnits="userSpaceOnUse">
<stop offset="0.208333" stop-color="#D6F3FF" stop-opacity="0"/>
<stop offset="0.375" stop-color="#D6F3FF"/>
<stop offset="0.583333" stop-color="#D6F3FF" stop-opacity="0"/>
</linearGradient>
<linearGradient id="paint3_linear_18_30769" x1="6.5" y1="8.5" x2="25.5" y2="8.5" gradientUnits="userSpaceOnUse">
<stop stop-color="#D2D0D6"/>
<stop offset="0.260417" stop-color="#D3CEDD"/>
<stop offset="0.510417" stop-color="#E2DBEF"/>
<stop offset="0.755208" stop-color="#EBE7F3"/>
<stop offset="1" stop-color="#E5E3EA"/>
</linearGradient>
<linearGradient id="paint4_linear_18_30769" x1="16" y1="8" x2="16" y2="27" gradientUnits="userSpaceOnUse">
<stop offset="0.974586" stop-color="#E1D0F7" stop-opacity="0"/>
<stop offset="1" stop-color="#E1D0F7"/>
</linearGradient>
<linearGradient id="paint5_linear_18_30769" x1="24" y1="4" x2="20.5" y2="27" gradientUnits="userSpaceOnUse">
<stop offset="0.505208" stop-color="white"/>
<stop offset="1" stop-color="white" stop-opacity="0"/>
</linearGradient>
</defs>
</svg>

<svg width="32" height="32" fill="none" xmlns="http://www.w3.org/2000/svg"><path d="m4.01 3.066 3.78 26.127a.95.95 0 0 0 .937.807h14.546a.934.934 0 0 0 .937-.807l3.78-26.127A.942.942 0 0 0 27.053 2H4.947a.942.942 0 0 0-.938 1.066Z" fill="url(#a)"/><path d="m4.01 3.066 3.78 26.127a.95.95 0 0 0 .937.807h14.546a.934.934 0 0 0 .937-.807l3.78-26.127A.942.942 0 0 0 27.053 2H4.947a.942.942 0 0 0-.938 1.066Z" fill="url(#b)"/><path d="m4.01 3.066 3.78 26.127a.95.95 0 0 0 .937.807h14.546a.934.934 0 0 0 .937-.807l3.78-26.127A.942.942 0 0 0 27.053 2H4.947a.942.942 0 0 0-.938 1.066Z" fill="url(#c)"/><path d="m6.51 9.295 2.461 17.167c.04.309.31.538.62.538h12.806c.31 0 .58-.229.62-.538l2.47-17.167c.1-.688-.43-1.295-1.13-1.295H7.64c-.69 0-1.22.617-1.13 1.295Z" fill="url(#d)"/><path d="m6.51 9.295 2.461 17.167c.04.309.31.538.62.538h12.806c.31 0 .58-.229.62-.538l2.47-17.167c.1-.688-.43-1.295-1.13-1.295H7.64c-.69 0-1.22.617-1.13 1.295Z" fill="url(#e)"/><g filter="url(#f)"><path d="m24.127 8.681 1.123.267-2.216.234-11.631-.234 9.211-.267h3.513Z" fill="#fff"/></g><path fill-rule="evenodd" clip-rule="evenodd" d="M24.856 5.215a1 1 0 1 0-1.98-.284L19.713 27h2.02l3.123-21.785Z" fill="url(#g)"/><g filter="url(#h)"><path d="m26.127 2.681 1.123.267-2.216.234-11.631-.234 9.211-.267h3.513Z" fill="#D8FCFF"/></g><g filter="url(#i)"><path d="m5.526 3-1.124.229 2.216.2 11.632-.2L9.038 3H5.526Z" fill="#9FD2F7" fill-opacity=".75"/></g><defs><linearGradient id="a" x1="4" y1="2.5" x2="28" y2="2.5" gradientUnits="userSpaceOnUse"><stop stop-color="#A6D5FC"/><stop offset=".203" stop-color="#C7ECFF"/><stop offset=".495" stop-color="#C2ECFF"/><stop offset=".781" stop-color="#C2EDFF"/><stop offset="1" stop-color="#9ED6FD"/></linearGradient><linearGradient id="b" x1="16" y1="28" x2="16" y2="30" gradientUnits="userSpaceOnUse"><stop stop-color="#DDFDFF" stop-opacity="0"/><stop offset="1" stop-color="#DDFDFF" stop-opacity=".75"/></linearGradient><linearGradient id="c" x1="4" y1="3.5" x2="28" y2="3" gradientUnits="userSpaceOnUse"><stop offset=".208" stop-color="#D6F3FF" stop-opacity="0"/><stop offset=".375" stop-color="#D6F3FF"/><stop offset=".583" stop-color="#D6F3FF" stop-opacity="0"/></linearGradient><linearGradient id="d" x1="6.5" y1="8.5" x2="25.5" y2="8.5" gradientUnits="userSpaceOnUse"><stop stop-color="#D2D0D6"/><stop offset=".26" stop-color="#D3CEDD"/><stop offset=".51" stop-color="#E2DBEF"/><stop offset=".755" stop-color="#EBE7F3"/><stop offset="1" stop-color="#E5E3EA"/></linearGradient><linearGradient id="e" x1="16" y1="8" x2="16" y2="27" gradientUnits="userSpaceOnUse"><stop offset=".975" stop-color="#E1D0F7" stop-opacity="0"/><stop offset="1" stop-color="#E1D0F7"/></linearGradient><linearGradient id="g" x1="24" y1="4" x2="20.5" y2="27" gradientUnits="userSpaceOnUse"><stop offset=".505" stop-color="#fff"/><stop offset="1" stop-color="#fff" stop-opacity="0"/></linearGradient><filter id="f" x="10.402" y="7.681" width="15.848" height="2.501" filterUnits="userSpaceOnUse" color-interpolation-filters="sRGB"><feFlood flood-opacity="0" result="BackgroundImageFix"/><feBlend in="SourceGraphic" in2="BackgroundImageFix" result="shape"/><feGaussianBlur stdDeviation=".5" result="effect1_foregroundBlur_18_30769"/></filter><filter id="h" x="12.402" y="1.681" width="15.848" height="2.501" filterUnits="userSpaceOnUse" color-interpolation-filters="sRGB"><feFlood flood-opacity="0" result="BackgroundImageFix"/><feBlend in="SourceGraphic" in2="BackgroundImageFix" result="shape"/><feGaussianBlur stdDeviation=".5" result="effect1_foregroundBlur_18_30769"/></filter><filter id="i" x="3.402" y="2" width="15.848" height="2.429" filterUnits="userSpaceOnUse" color-interpolation-filters="sRGB"><feFlood flood-opacity="0" result="BackgroundImageFix"/><feBlend in="SourceGraphic" in2="BackgroundImageFix" result="shape"/><feGaussianBlur stdDeviation=".5" result="effect1_foregroundBlur_18_30769"/></filter></defs></svg>
